X:1
T:Title
%%score { ( 1 3 ) | ( 2 4 ) }
L:1/8
Q:1/4=100
M:4/4
K:F
V:1 treble nm="Grand Piano"
V:3 treble 
V:2 bass 
V:4 bass 
V:1
 A3 A A2 A2 | z4 A4 | B3 B A2 [CFA]2 | [EG]8 | F3 F G2 G2 | A2 A2 [DB]4 | [CF]3 [CF] [FA]2 [EG]2 | %7
w: R.~Menthal * * *|||||||
[M:8/4] [A,F]8 z8 |[M:4/4] [DF]8 | [A,CF]8 |] %10
w: |||
V:2
 [F,CF]3 [F,CF] [F,CF]2 [F,CF]2 | z4 C2 z2 | [F,DF]3 [F,DF] [F,CF]2 A,,2 | C,8 | %4
 [F,A,]3 [F,A,] [F,B,E]2 [F,B,E]2 | [F,C_E]2 [F,CE]2 [B,,B,]4 | [C,A,]3 [C,A,] [C,C]2 [C,B,]2 | %7
[M:8/4] [F,,F,]8 z8 |[M:4/4] [B,,B,]8 | [F,,F,]8 |] %10
V:3
 x8 | F2 G2 z2 _E2 | x8 | C6 B,2 | x8 | x8 | x8 |[M:8/4] x16 |[M:4/4] x8 | x8 |] %10
V:4
 x8 | [F,A,]2 [F,B,F]2 [F,F]4 | x8 | x8 | x8 | x8 | x8 |[M:8/4] x16 |[M:4/4] x8 | x8 |] %10

